X: 1
T: Beauty Spot, The
M: C|
L: 1/8
R: reel
D: Maeve Donnelly: Maeve Donnelly
Z: Dow
K: Bdor
F3E F2BA|F2EC A,B,CE|~F3E ~F2BA|FAEA, CB,CE|
~F3E F2BA|F2EC A,B,CE|~F3A ~G3B|AFEA, CB,CE||
cBAB cB~B2|ceAB cafe|cBAB cB~B2|EFAB cB~B2|
c2AB cB~B2|ceAB cafe|~c3A BcBA|EFAB cABA||
